svg/nature/bear_line.svg

<?xml version="1.0" encoding="UTF-8"?>
<svg width="24px" height="24px" viewBox="0 0 24 24" version="1.1" xmlns="http://www.w3.org/2000/svg" xmlns:xlink="http://www.w3.org/1999/xlink">
    <title>bear_line</title>
    <g id="Icon" stroke="none" stroke-width="1" fill="none" fill-rule="evenodd">
        <g id="Nature" transform="translate(-336.000000, -98.000000)">
            <g id="bear_line" transform="translate(336.000000, 98.000000)">
                <path d="M24,0 L24,24 L0,24 L0,0 L24,0 Z M12.5935,23.2578 L12.5819,23.2595 L12.5109,23.295 L12.4919,23.2987 L12.4767,23.295 L12.4057,23.2595 C12.3958,23.2564 12.387,23.259 12.3821,23.2649 L12.378,23.2758 L12.3609,23.7031 L12.3659,23.7235 L12.3769,23.7357 L12.4805,23.8097 L12.4953,23.8136 L12.5071,23.8097 L12.6107,23.7357 L12.6233,23.7197 L12.6267,23.7031 L12.6096,23.2758 C12.6076,23.2657 12.601,23.2593 12.5935,23.2578 Z M12.8584,23.1453 L12.8445,23.1473 L12.6598,23.2397 L12.6499,23.2499 L12.6472,23.2611 L12.6651,23.6906 L12.6699,23.7034 L12.6784,23.7105 L12.8793,23.8032 C12.8914,23.8069 12.9022,23.803 12.9078,23.7952 L12.9118,23.7812 L12.8777,23.1665 C12.8753,23.1546 12.8674,23.147 12.8584,23.1453 Z M12.143,23.1473 C12.1332,23.1424 12.1222,23.1453 12.1156,23.1526 L12.1099,23.1665 L12.0758,23.7812 C12.0751,23.7927 12.0828,23.8019 12.0926,23.8046 L12.1083,23.8032 L12.3092,23.7105 L12.3186,23.7024 L12.3225,23.6906 L12.3404,23.2611 L12.3372,23.2485 L12.3278,23.2397 L12.143,23.1473 Z" id="MingCute" fill-rule="nonzero"></path>
                <path d="M18.5,2 C20.433,2 22,3.567 22,5.5 C22,6.77639 21.3168,7.8932 20.2961,8.50465 C20.7494,9.5793 21,10.7604 21,12 C21,16.9706 16.9706,21 12,21 C7.02944,21 3,16.9706 3,12 C3,10.7604 3.25062,9.5793 3.70395,8.50465 C2.68324,7.8932 2,6.77639 2,5.5 C2,3.567 3.567,2 5.5,2 C6.77639,2 7.8932,2.68324 8.50465,3.70395 C9.5793,3.25062 10.7604,3 12,3 C13.2396,3 14.4207,3.25062 15.4953,3.70395 C16.1068,2.68324 17.2236,2 18.5,2 Z M12,5 C8.13401,5 5,8.13401 5,12 C5,15.866 8.13401,19 12,19 C15.866,19 19,15.866 19,12 C19,8.13401 15.866,5 12,5 Z M12,12 C12.8284,12 13.5,12.6716 13.5,13.5 C13.5,13.9386 13.3117,14.3333 13.0116,14.6076 C13.0608,14.832 13.2608,15 13.5,15 C14.0523,15 14.5,15.4477 14.5,16 C14.5,16.5523 14.0523,17 13.5,17 C12.9372,17 12.4178,16.814 12,16.5002 C11.5822,16.814 11.0628,17 10.5,17 C9.94772,17 9.5,16.5523 9.5,16 C9.5,15.4477 9.94772,15 10.5,15 C10.7392,15 10.9392,14.832 10.9884,14.6076 C10.6883,14.3333 10.5,13.9386 10.5,13.5 C10.5,12.6716 11.1716,12 12,12 Z M9,9 C9.51283143,9 9.93550653,9.38604429 9.9932722,9.88337975 L10,10 L10,11 C10,11.5523 9.55228,12 9,12 C8.48716857,12 8.06449347,11.613973 8.0067278,11.1166239 L8,11 L8,10 C8,9.44772 8.44772,9 9,9 Z M15,9 C15.5523,9 16,9.44772 16,10 L16,11 C16,11.5523 15.5523,12 15,12 C14.4477,12 14,11.5523 14,11 L14,10 C14,9.44772 14.4477,9 15,9 Z M5.5,4 C4.67157,4 4,4.67157 4,5.5 C4,6.02714 4.27191,6.49076 4.68313,6.75827 C5.25698,5.95866 5.95866,5.25698 6.75827,4.68313 C6.49076,4.27191 6.02714,4 5.5,4 Z M18.5,4 C17.9729,4 17.5092,4.27191 17.2417,4.68313 C18.0413,5.25698 18.743,5.95866 19.3169,6.75827 C19.7281,6.49076 20,6.02714 20,5.5 C20,4.67157 19.3284,4 18.5,4 Z" id="形状" fill="#09244B"></path>
            </g>
        </g>
    </g>
</svg>

<svg xmlns="http://www.w3.org/2000/svg" width="24" height="24"><g fill="none" fill-rule="evenodd"><path d="M24 0v24H0V0h24ZM12.594 23.258l-.012.002-.071.035-.02.004-.014-.004-.071-.036c-.01-.003-.019 0-.024.006l-.004.01-.017.428.005.02.01.013.104.074.015.004.012-.004.104-.074.012-.016.004-.017-.017-.427c-.002-.01-.009-.017-.016-.018Zm.264-.113-.014.002-.184.093-.01.01-.003.011.018.43.005.012.008.008.201.092c.012.004.023 0 .029-.008l.004-.014-.034-.614c-.003-.012-.01-.02-.02-.022Zm-.715.002a.023.023 0 0 0-.027.006l-.006.014-.034.614c0 .012.007.02.017.024l.015-.002.201-.093.01-.008.003-.011.018-.43-.003-.012-.01-.01-.184-.092Z"/><path fill="#09244B" d="M18.5 2a3.5 3.5 0 0 1 1.796 6.505A9 9 0 1 1 3 12c0-1.24.25-2.42.704-3.495a3.5 3.5 0 1 1 4.8-4.8A8.972 8.972 0 0 1 12 2.999c1.24 0 2.42.25 3.495.704A3.498 3.498 0 0 1 18.5 2ZM12 5a7 7 0 1 0 0 14 7 7 0 0 0 0-14Zm0 7a1.5 1.5 0 0 1 1.012 2.608.5.5 0 0 0 .488.392 1 1 0 1 1 0 2 2.49 2.49 0 0 1-1.5-.5 2.49 2.49 0 0 1-1.5.5 1 1 0 1 1 0-2 .5.5 0 0 0 .488-.392A1.5 1.5 0 0 1 12 12ZM9 9a1 1 0 0 1 .993.883L10 10v1a1 1 0 0 1-1.993.117L8 11v-1a1 1 0 0 1 1-1Zm6 0a1 1 0 0 1 1 1v1a1 1 0 1 1-2 0v-1a1 1 0 0 1 1-1ZM5.5 4a1.5 1.5 0 0 0-.817 2.758 9.052 9.052 0 0 1 2.075-2.075A1.499 1.499 0 0 0 5.5 4Zm13 0c-.527 0-.99.272-1.258.683a9.053 9.053 0 0 1 2.075 2.075A1.499 1.499 0 0 0 18.5 4Z"/></g></svg>
